X: 43431
T: Y Lancers
R: jig
M: 6/8
K: Dmajor
|:E|D2 d d2 B|A2 F D2 E|F2 D FAF|FED EFE|
D2 d d2 B|AF/G/A D2 E|F2 d E2 d|D3- D2:|
|:e|f2 d faf|e2 c A2 e|d2 f B2 d|cec A2 e|
f2 d f/g/af|e2 c A2 c|Bcd EF^G|1 A3- A2:|2 ABA G2||

